X: 10944
Q: "Gallop time."
M: 6/8
L: 1/8
K: F
c/B/ !segno!|\
c |\
.A/.B/.c.F .A/.B/.c.F | .A/.B/.c.F .A/.B/.c.F | .A/.B/.c.F fcB | A3 F2c |\
.B/.c/.d.G .B/.c/.d.G | .B/.c/.d.G .B/.c/.d.G | .B/.c/.d.G gdc | B3 G2B |
.A/.B/.c.F .A/.B/.c.F | .A/.B/.c.F .A/.B/.c.F | .A/.B/.c.F fcB | A3 FGA |\
c |\
c |\
.f/.g/.a/.g/.f/.e/ .f/.g/.a/.g/.f/.e/ | .f/.g/.a/.g/.f/.e/ .f/.g/.a/.g/.f/.e/ | .f/.g/.a/.g/.f/.e/ fcd | A3 F2d |\
.g/.a/.b/.a/.g/.^f/ .g/.a/.b/.a/.g/.f/ | .g/.a/.b/.a/.g/.^f/ .g/.a/.b/.a/.g/.f/ | .g/.a/.b/.a/.g/.^f/ gdc | B3 G2c |
.f/.g/.a/.g/.f/.e/ .f/.g/.a/.g/.f/.e/ | .f/.g/.a/.g/.f/.e/ .f/.g/.a/.g/.f/.e/ | .f/.g/.a/.g/.f/.e/ fcf | A3 FGA |\



